X:13002
T:Maid Behind the Bar, The
R:Reel
C:Trad.
O:Ireland
Z:Paul Hardy's Session Tunebook 2022 (see www.paulhardy.net). Creative Commons cc by-nc-sa licenced.
M:4/4
L:1/8
Q:1/4=120
K:D
AG|"D"FAAB AFED|FAAB A2de|"Bm"fBBA Bcde|f2gf "A7"edBA|
"D"FAAB AFED|FAAB A2de|"Bm"fBBA BcdB|"A7"AFEF "D"D2:|
|:de|"D"fgag fdde|fdad fdd2|"Em"efga beef|gebe gee2|
"D"faaf bfaf|defd "Em"e2de|"Bm"fBBA BcdB|"A7"AFEF "D"D2:|

